X:006
T:Black Haired Lass (r)
B:NFID.066
006black_h
S:JD
L:1/8
M:C
R:reel
Q:360
K:A=G
e2d|: cBAG Acec|Bdgd BGGB|cBAB cdeg|1 dfec Aaed:|2 fded cAAB||
cdef gfeg|fdfa gfed|cdef gfeg|fded cAAB|
cdef gfeg|fdfa gfgb|afge fdec|dfec Aaed||

%%%

